!!!SOCIAL_FUNCTION:	klukluwatk dance
!!!PDT:	1939
!!!OTL: No_35_Song_of_the_Kluklukwatk_Dance_(a).krn
!!!LANG: Non-Tone
!!!LING_GROUP: Wakashan
!!!REG: Pacific Northwest
**kern	**kern
*staff2	*staff1
=1-	=1-
*clefF4	*clefF4
*k[b-]	*k[b-]
*M2/4	*M2/4
2r	4r
.	4c\
=2	=2
2r	4c\
.	8B-\L
.	8A\J
=3	=3
2r	4A\
.	8B-\L
.	8c\J
=4	=4
2r	4c\
.	4A\
=5	=5
2r	4c\
.	8A\L
.	8G\J
=6	=6
2r	4A\
.	8A\L
.	8c\J
=7	=7
2r	4c\
.	4A\
=8	=8
2r	4c\
.	8A\L
.	8G\J
=9	=9
2r	8A\
.	8r
.	4A\
=10	=10
2r	2A\
=11	=11
2r	8c\L
.	8A\J
.	8c\
.	8r
=12	=12
8EE/	2r
8r	.
8EE/L	.
8EE/J	.
=13	=13
=	=
8EE/	4r
8r	.
8EE/L	8c\L
8EE/J	8c\J
=14	=14
8EE/	4c\
8r	.
8EE/L	8c\L
8EE/J	8A\J
=15||	=15||
*M3/4	*M3/4
8EE/	8c\
8r	8r
8EE/L	8A\L
8EE/J	8G\J
8EE/	8G\
8r	8r
=16||	=16||
*M2/4	*M2/4
8EE/L	8A\L
8EE/J	8c\J
8EE/	8c\L
8r	8A\J
=17	=17
8EE/L	4A\
8EE/J	.
8EE/	4c\
8r	.
=18	=18
8EE/L	8A\L
8EE/J	8G\J
8EE/	8G\
8r	8r
=19	=19
8EE/L	8A\L
8EE/J	8c\J
8EE/	8c\L
8r	8A\J
=20	=20
8EE/L	4A\
8EE/J	.
8EE/	4c\
8r	.
=21||	=21||
*M3/4	*M3/4
8EE/L	8A\L
8EE/J	8G\J
8EE/	8G\
8r	8r
8EE/	8.c\L
8r	.
.	16A\Jk
=22||	=22||
*M2/4	*M2/4
8EE/	2A\
8r	.
8EE/L	.
8EE/J	.
=23	=23
8EE/	8c\L
8r	8A\J
8EE/L	8c\
8EE/J	8r
=24:|!	=24:|!
8EE/L	8c\L
8EE/J	8c\J
8EE/	4c\
8r	.
=25	=25
2r	8c\
.	8r
.	4r
=26||	=26||
*M3/4	*M3/4
4r	2r
8EE/L	.
8EE/J	.
4r	4r
=27||	=27||
*M2/4	*M2/4
4r	8c\L
.	8c\J
8EE/	4c\
8r	.
=28	=28
8EE/	8c\
8r	8r
4r	4r
==	==
*-	*-
